inst/assets/svg/wi-moon-alt-waxing-gibbous-3.svg

<?xml version="1.0" encoding="UTF-8"?>
<svg xmlns="http://www.w3.org/2000/svg" xmlns:xlink="http://www.w3.org/1999/xlink" width="30pt" height="30pt" viewBox="0 0 30 30" version="1.1">
<g id="surface426">
<path style=" stroke:none;fill-rule:nonzero;fill:rgb(0%,0%,0%);fill-opacity:1;" d="M 3.738281 14.441406 C 3.738281 12.410156 4.238281 10.53125 5.25 8.800781 C 6.261719 7.070313 7.621094 5.699219 9.351563 4.699219 C 11.078125 3.699219 12.960938 3.191406 14.988281 3.191406 C 16.511719 3.191406 17.96875 3.488281 19.359375 4.078125 C 20.75 4.671875 21.949219 5.480469 22.960938 6.480469 C 23.96875 7.480469 24.769531 8.679688 25.359375 10.070313 C 25.949219 11.460938 26.25 12.910156 26.25 14.441406 C 26.25 15.96875 25.949219 17.421875 25.359375 18.808594 C 24.769531 20.199219 23.960938 21.398438 22.960938 22.410156 C 21.960938 23.421875 20.761719 24.21875 19.359375 24.808594 C 17.960938 25.398438 16.511719 25.699219 14.988281 25.699219 C 13.46875 25.699219 12.011719 25.398438 10.621094 24.808594 C 9.230469 24.21875 8.03125 23.410156 7.03125 22.410156 C 6.03125 21.410156 5.230469 20.210938 4.628906 18.808594 C 4.03125 17.410156 3.738281 15.96875 3.738281 14.441406 Z M 10.539063 14.441406 C 10.539063 18.878906 11.710938 22.21875 14.039063 24.460938 C 14.109375 24.460938 14.210938 24.460938 14.339844 24.46875 C 14.46875 24.480469 14.589844 24.488281 14.691406 24.488281 C 14.789063 24.488281 14.890625 24.5 14.988281 24.5 C 16.351563 24.5 17.648438 24.230469 18.890625 23.699219 C 20.128906 23.171875 21.210938 22.449219 22.109375 21.550781 C 23.011719 20.648438 23.71875 19.578125 24.261719 18.339844 C 24.800781 17.101563 25.058594 15.800781 25.058594 14.429688 C 25.058594 13.070313 24.789063 11.769531 24.261719 10.53125 C 23.730469 9.289063 23.011719 8.21875 22.109375 7.320313 C 21.210938 6.421875 20.140625 5.710938 18.890625 5.171875 C 17.640625 4.628906 16.339844 4.371094 14.988281 4.371094 C 14.628906 4.371094 14.359375 4.378906 14.179688 4.398438 C 13.101563 5.621094 12.21875 7.089844 11.539063 8.820313 C 10.859375 10.550781 10.539063 12.429688 10.539063 14.441406 Z M 10.539063 14.441406 "/>
</g>
</svg>

<?xml version="1.0" encoding="utf-8"?>
<!-- Generator: Adobe Illustrator 22.0.1, SVG Export Plug-In . SVG Version: 6.00 Build 0)  -->
<svg version="1.1" id="Layer_1" xmlns="http://www.w3.org/2000/svg" xmlns:xlink="http://www.w3.org/1999/xlink" x="0px" y="0px"
	 viewBox="0 0 30 30" style="enable-background:new 0 0 30 30;" xml:space="preserve">
<path d="M3.74,14.44c0-2.03,0.5-3.91,1.51-5.64s2.37-3.1,4.1-4.1s3.61-1.51,5.64-1.51c1.52,0,2.98,0.3,4.37,0.89s2.59,1.4,3.6,2.4
	s1.81,2.2,2.4,3.59s0.89,2.84,0.89,4.37s-0.3,2.98-0.89,4.37s-1.4,2.59-2.4,3.6s-2.2,1.81-3.6,2.4s-2.85,0.89-4.37,0.89
	s-2.98-0.3-4.37-0.89s-2.59-1.4-3.59-2.4s-1.8-2.2-2.4-3.6S3.74,15.97,3.74,14.44z M10.54,14.44c0,4.44,1.17,7.78,3.5,10.02
	c0.07,0,0.17,0,0.3,0.01s0.25,0.02,0.35,0.02s0.2,0.01,0.3,0.01c1.36,0,2.66-0.27,3.9-0.8s2.32-1.25,3.22-2.15s1.61-1.97,2.15-3.21
	s0.8-2.54,0.8-3.91c0-1.36-0.27-2.66-0.8-3.9s-1.25-2.31-2.15-3.21s-1.97-1.61-3.22-2.15s-2.55-0.8-3.9-0.8
	c-0.36,0-0.63,0.01-0.81,0.03c-1.08,1.22-1.96,2.69-2.64,4.42S10.54,12.43,10.54,14.44z"/>
</svg>
